X:203
T: Rautenstraeuchlein oder Traum eines Ehemannes
N: A0245
O: Europa, Mitteleuropa, Deutschland
N: Forster II 1540 No. 21.
R: Romanze, Ballade, Lied
M: 4/2
L: 1/8
K: F
F4 | c8A8 | B8c8 | A8A4
F4 | c8A8 | B8c4c8B2A2 | G8F4
C4 | F4G4A4B4 | c6B2A4
A4 | G4G4G4G4 | D8G8 | F6EDC4
C4 | F4G4A4B4 | c6B2A4
A4 | G4G4G4G4 | D8G8 | F8z4

@@@ Tune index: 203
